X:1056
T:BALEU 3
Z: Yves Belotteau
Z: Yves Belotteau
M:6/8
L:1/8
Q:1/4=80
K:G
|B/2BA/2G G/2A/2A/2A/2B|B/2BA/2G A/2G3/2E3/2|B/2BA/2G G/2A/2A/2A/2B|B/2B
A/2G A/2G3/2E3/2|
E/2E/2E/2G3/2 A/2A/2A/2B3/2|B/2B/2c/2BA/2 GF/2E3/2|E/2E/2E/2G3/2 A/2A/2A
/2B3/2|B/2B/2c/2BA/2 GF/2E3/2|


